lib/brands/icons/nginx.svg

<svg xmlns="http://www.w3.org/2000/svg" fill="none" aria-hidden="true" viewBox="0 0 48 48"><g id="nginx-Icon"><g id="Group"><path id="Vector" fill="#009639" d="M8.4095 33.0068C8.57293 33.2974 8.80899 33.5153 9.09954 33.6787L23.0819 41.7412C23.663 42.0863 24.3712 42.0863 24.9341 41.7412L38.9164 33.6787C39.4975 33.3518 39.8425 32.7344 39.8425 32.0625V15.9375C39.8425 15.2656 39.4975 14.6482 38.9164 14.3213L24.9341 6.25876C24.353 5.91375 23.6448 5.91375 23.0819 6.25876L9.09954 14.3213C8.50029 14.6482 8.15527 15.2656 8.15527 15.9375V32.0807C8.15527 32.4076 8.22791 32.7163 8.4095 33.0068Z"/><path id="Vector_2" fill="white" d="M19.5227 30.1559C19.5227 31.1547 18.7237 31.9537 17.725 31.9537C16.7262 31.9537 15.9272 31.1547 15.9272 30.1559V17.826C15.9272 16.8636 16.7807 16.0828 17.961 16.0828C18.8145 16.0828 19.8132 16.4278 20.4125 17.1723L20.9573 17.826L28.475 26.8147V17.8624C28.475 16.8636 29.274 16.0646 30.2728 16.0646C31.2715 16.0646 32.0705 16.8636 32.0705 17.8624V30.1923C32.0705 31.1547 31.217 31.9355 30.0367 31.9355C29.1832 31.9355 28.1845 31.5905 27.5853 30.846L19.5227 21.2218V30.1559Z"/></g></g></svg>

<svg xmlns="http://www.w3.org/2000/svg" fill="none" aria-hidden="true" viewBox="0 0 48 48"><path fill="#009639" d="M8.41 33.007c.163.29.4.508.69.672l13.982 8.062c.581.345 1.29.345 1.852 0l13.983-8.062c.58-.327.926-.945.926-1.617V15.939a1.84 1.84 0 0 0-.926-1.617L24.934 6.26a1.787 1.787 0 0 0-1.852 0L9.1 14.32a1.82 1.82 0 0 0-.945 1.617V32.08c0 .327.073.635.255.926Z"/><path fill="#fff" d="M19.523 30.156a1.79 1.79 0 0 1-1.798 1.798 1.79 1.79 0 0 1-1.798-1.798v-12.33c0-.962.854-1.743 2.034-1.743.854 0 1.852.345 2.452 1.09l.544.653 7.518 8.989v-8.953a1.79 1.79 0 0 1 1.798-1.797 1.79 1.79 0 0 1 1.798 1.797v12.33c0 .963-.854 1.744-2.034 1.744-.854 0-1.852-.346-2.452-1.09l-8.062-9.624v8.934Z"/></svg>
